client/src/assets/img/logo.svg

<svg width="159" height="25" viewBox="0 0 159 25" fill="none" xmlns="http://www.w3.org/2000/svg">
<path d="M11.6 24.7467C3.86667 24.72 0.213333 22.32 0.4 16.5067H7.04C7.12 18.0267 8.4 18.96 11.6 18.9867C14.4267 19.0133 15.7333 18.2133 15.7333 17.1733C15.7333 16.4533 15.3333 15.7067 13.1467 15.3867L10.2667 14.9333C6.02667 14.24 0.933333 13.7333 0.933333 8C0.933333 3.57333 4.53333 0.853333 11.6533 0.853333C18.08 0.853333 22.56 2.64 22.4267 9.04H15.84C15.5733 7.54667 14.32 6.61333 11.4933 6.61333C9.04 6.61333 8.02667 7.36 8.02667 8.37333C8.02667 9.01333 8.42667 9.78667 10.1333 10.0533L12.5067 10.4533C16.96 11.2 23.0667 11.3333 23.0667 17.4667C23.0667 22.3467 19.28 24.7733 11.6 24.7467ZM40.5446 1.6H47.9313V24H40.5446V15.8933H31.8513V24H24.4646V1.6H31.8513V9.70667H40.5446V1.6ZM62.1017 24.7467C54.395 24.7467 49.4083 19.9733 49.4083 12.8C49.4083 5.62667 54.395 0.853333 62.1017 0.853333C69.8083 0.853333 74.795 5.62667 74.795 12.8C74.795 19.9733 69.8083 24.7467 62.1017 24.7467ZM62.1017 18.3733C65.035 18.3733 67.4617 16.3467 67.4617 12.8C67.4617 9.25333 65.035 7.22667 62.1017 7.22667C59.1683 7.22667 56.7417 9.25333 56.7417 12.8C56.7417 16.3467 59.1683 18.3733 62.1017 18.3733ZM76.2771 24V1.6H88.9971C95.1038 1.6 98.7304 4.32 98.7304 10.3467C98.7304 16.3733 95.1038 19.0933 89.0238 19.0933H83.6638V24H76.2771ZM83.6638 12.96H88.3571C90.1438 12.96 91.2904 12.08 91.2904 10.3467C91.2904 8.61333 90.1438 7.73333 88.3837 7.73333H83.6638V12.96ZM102.426 24.4267C100.426 24.4267 98.7458 22.7733 98.7458 20.8C98.7458 18.8267 100.426 17.1733 102.426 17.1733C104.426 17.1733 106.106 18.8267 106.106 20.8C106.106 22.7733 104.426 24.4267 102.426 24.4267ZM120.151 24.7467C112.605 24.7467 107.565 19.9733 107.565 12.8C107.565 5.62667 112.605 0.853333 120.151 0.853333C125.618 0.853333 131.218 3.25333 131.965 10.8267H124.925C124.311 8.37333 122.578 7.22667 120.151 7.22667C117.218 7.22667 114.898 9.41333 114.898 12.8C114.898 16.1867 117.218 18.3733 120.151 18.3733C122.578 18.3733 124.311 17.2267 124.925 14.72H131.965C131.218 22.3467 125.671 24.7467 120.151 24.7467ZM146.008 24.7467C138.301 24.7467 133.315 19.9733 133.315 12.8C133.315 5.62667 138.301 0.853333 146.008 0.853333C153.715 0.853333 158.701 5.62667 158.701 12.8C158.701 19.9733 153.715 24.7467 146.008 24.7467ZM146.008 18.3733C148.941 18.3733 151.368 16.3467 151.368 12.8C151.368 9.25333 148.941 7.22667 146.008 7.22667C143.075 7.22667 140.648 9.25333 140.648 12.8C140.648 16.3467 143.075 18.3733 146.008 18.3733Z" fill="black"/>
</svg>

<svg xmlns="http://www.w3.org/2000/svg" width="159" height="25" fill="none"><path fill="#000" d="M11.6 24.747C3.867 24.72.213 22.32.4 16.507h6.64c.08 1.52 1.36 2.453 4.56 2.48 2.827.026 4.133-.774 4.133-1.814 0-.72-.4-1.466-2.586-1.786l-2.88-.454C6.027 14.24.933 13.733.933 8c0-4.427 3.6-7.147 10.72-7.147C18.08.853 22.56 2.64 22.427 9.04H15.84c-.267-1.493-1.52-2.427-4.347-2.427-2.453 0-3.466.747-3.466 1.76 0 .64.4 1.414 2.106 1.68l2.374.4c4.453.747 10.56.88 10.56 7.014 0 4.88-3.787 7.306-11.467 7.28M40.545 1.6h7.386V24h-7.386v-8.107H31.85V24h-7.386V1.6h7.386v8.107h8.694zm21.557 23.147c-7.707 0-12.694-4.774-12.694-11.947S54.395.853 62.102.853c7.706 0 12.693 4.774 12.693 11.947s-4.987 11.947-12.693 11.947m0-6.374c2.933 0 5.36-2.026 5.36-5.573s-2.427-5.573-5.36-5.573-5.36 2.026-5.36 5.573 2.426 5.573 5.36 5.573M76.277 24V1.6h12.72c6.107 0 9.733 2.72 9.733 8.747s-3.626 8.746-9.706 8.746h-5.36V24zm7.387-11.04h4.693c1.787 0 2.933-.88 2.933-2.613s-1.146-2.614-2.906-2.614h-4.72zm18.762 11.467c-2 0-3.68-1.654-3.68-3.627s1.68-3.627 3.68-3.627 3.68 1.654 3.68 3.627-1.68 3.627-3.68 3.627m17.725.32c-7.546 0-12.586-4.774-12.586-11.947S112.605.853 120.151.853c5.467 0 11.067 2.4 11.814 9.974h-7.04c-.614-2.454-2.347-3.6-4.774-3.6-2.933 0-5.253 2.186-5.253 5.573s2.32 5.573 5.253 5.573c2.427 0 4.16-1.146 4.774-3.653h7.04c-.747 7.627-6.294 10.027-11.814 10.027m25.857 0c-7.707 0-12.693-4.774-12.693-11.947S138.301.853 146.008.853s12.693 4.774 12.693 11.947-4.986 11.947-12.693 11.947m0-6.374c2.933 0 5.36-2.026 5.36-5.573s-2.427-5.573-5.36-5.573-5.36 2.026-5.36 5.573 2.427 5.573 5.36 5.573"/></svg>
